packages/icons/src/svgs/uncategorized/PDF.svg

<svg xmlns="http://www.w3.org/2000/svg" aria-hidden="true" viewBox="0 0 32 32">
    <title>
        PDF
    </title>
    <path fill="currentColor" d="M27 13c0-.1 0-.1 0 0 0-.2 0-.3-.1-.4-.1-.1-.1-.2-.2-.3l-8.9-8.9c-.2-.3-.4-.4-.7-.4H6c-.6 0-1 .5-1 1v24c0 .6.4 1 1 1h20c.6 0 1-.4 1-1V13zm-8.9-6.6l5.5 5.6h-5.5V6.4zm-2-1.4v8c0 .6.4 1 1 1H25v2.4H7V5h9.1zM8.4 25.2v-6.1h2.3c1.4 0 2.2.9 2.2 2 0 1.2-.8 2-2.2 2H9.5v2.1H8.4zm5.6 0v-6.1h2.1c1.8 0 2.9 1.1 2.9 3s-1.1 3.1-3 3.1h-2zm10-3.5v.9h-2.5v2.6h-1.1v-6.1h3.9v.9h-2.8v1.7H24zm-6.1.4c0 1.4-.6 2.1-1.9 2.1h-.9V20h.9c1.3 0 1.9.7 1.9 2.1zm-7.4.1h-1V20h1c.8 0 1.2.4 1.2 1.1 0 .6-.3 1.1-1.2 1.1z"/>
</svg>

<svg role="img" xmlns="http://www.w3.org/2000/svg" aria-hidden="true" viewBox="0 0 32 32">
  <title>PDF</title>
  <path
    d="M27 13C27 12.9 27 12.9 27 13C27 12.8 27 12.7 26.9 12.6C26.8 12.5 26.8 12.4 26.7 12.3L17.8 3.4C17.6 3.1 17.4 3 17.1 3H6C5.4 3 5 3.5 5 4V28C5 28.6 5.4 29 6 29H26C26.6 29 27 28.6 27 28V13ZM18.1 6.4L23.6 12H18.1V6.4ZM16.1 5V13C16.1 13.6 16.5 14 17.1 14H25V16.4H7V5H16.1ZM8.4 25.2V19.1H10.7C12.1 19.1 12.9 20 12.9 21.1C12.9 22.3 12.1 23.1 10.7 23.1H9.5V25.2H8.4ZM14 25.2V19.1H16.1C17.9 19.1 19 20.2 19 22.1C19 24 17.9 25.2 16 25.2H14ZM24 21.7V22.6H21.5V25.2H20.4V19.1H24.3V20H21.5V21.7H24ZM17.9 22.1C17.9 23.5 17.3 24.2 16 24.2H15.1V20H16C17.3 20 17.9 20.7 17.9 22.1ZM10.5 22.2H9.5V20H10.5C11.3 20 11.7 20.4 11.7 21.1C11.7 21.7 11.4 22.2 10.5 22.2Z"
    fill="currentColor"
  ></path>
</svg>
